outputs/icons/general/tiers_round.svg

<svg xmlns="http://www.w3.org/2000/svg" width="1200" height="1200" fill="none"><path fill="#000" d="M1000 550c55.23 0 100-44.77 100-100V250c0-55.228-44.77-100-100-100H850c-55.23 0-100 44.772-100 100v50H450v-50c0-55.228-44.771-100-100-100H200c-55.228 0-100 44.772-100 100v200c0 55.23 44.772 100 100 100h150c55.229 0 100-44.77 100-100v-50h100v400c0 55.23 44.77 100 100 100h100v50c0 55.23 44.77 100 100 100h150c55.23 0 100-44.77 100-100V750c0-55.23-44.77-100-100-100H850c-55.23 0-100 44.77-100 100v50H650V400h100v50c0 55.23 44.77 100 100 100z"/></svg>

<svg width="1200" height="1200" viewBox="0 0 1200 1200" fill="none" xmlns="http://www.w3.org/2000/svg"><path d="M1000 550C1055.23 550 1100 505.23 1100 450V250C1100 194.772 1055.23 150 1000 150H850C794.77 150 750 194.772 750 250V300H450V250C450 194.772 405.229 150 350 150H200C144.772 150 100 194.772 100 250V450C100 505.23 144.772 550 200 550H350C405.229 550 450 505.23 450 450V400H550V800C550 855.23 594.77 900 650 900H750V950C750 1005.23 794.77 1050 850 1050H1000C1055.23 1050 1100 1005.23 1100 950V750C1100 694.77 1055.23 650 1000 650H850C794.77 650 750 694.77 750 750V800H650V400H750V450C750 505.23 794.77 550 850 550H1000Z" fill="black"/></svg>
